assets/Thought balloon/Flat/thought_balloon_flat.svg

<svg width="32" height="32" viewBox="0 0 32 32" fill="none" xmlns="http://www.w3.org/2000/svg">
<path d="M26.8066 9.56882C28.6586 10.1925 30 11.9328 30 14.005C30 16.0773 28.6486 17.8176 26.7765 18.4412C26.8166 18.6927 26.8566 18.9543 26.8566 19.2259C26.8566 21.8212 24.7644 23.9236 22.1816 23.9236C21.0804 23.9236 20.0894 23.5213 19.2885 22.8875C18.7079 24.1349 17.4466 25 15.985 25C14.5234 25 13.2721 24.1349 12.6814 22.8875C11.8806 23.5313 10.8895 23.9236 9.78835 23.9236C7.20558 23.9236 5.11334 21.8212 5.11334 19.2259C5.11334 18.9637 5.15066 18.7202 5.18928 18.4683L5.19342 18.4412C3.34144 17.8176 2 16.0773 2 14.005C2 11.9328 3.34144 10.1925 5.20343 9.55876C5.16339 9.30727 5.12335 9.04572 5.12335 8.77412C5.12335 6.17878 7.21559 4.07636 9.79836 4.07636C10.8995 4.07636 11.8906 4.47874 12.6915 5.11248C13.2721 3.86511 14.5334 3 15.995 3C17.4666 3 18.7179 3.86511 19.3186 5.12254C20.1194 4.47874 21.1105 4.08642 22.2117 4.08642C24.7944 4.08642 26.8867 6.18884 26.8867 8.78418C26.8867 9.04641 26.8493 9.28988 26.8107 9.54176L26.8066 9.56882Z" fill="#E1D8EC"/>
<path d="M7 26.5C7 27.8807 5.88071 29 4.5 29C3.11929 29 2 27.8807 2 26.5C2 25.1193 3.11929 24 4.5 24C5.88071 24 7 25.1193 7 26.5Z" fill="#E1D8EC"/>
</svg>

<svg xmlns="http://www.w3.org/2000/svg" width="32" height="32" fill="none"><path fill="#E1D8EC" d="M26.807 9.569A4.68 4.68 0 0 1 30 14.005c0 2.072-1.351 3.813-3.224 4.436.04.252.08.513.08.785 0 2.595-2.092 4.698-4.674 4.698-1.102 0-2.093-.403-2.893-1.037A3.645 3.645 0 0 1 15.984 25c-1.462 0-2.713-.865-3.304-2.113a4.581 4.581 0 0 1-2.893 1.037c-2.582 0-4.675-2.103-4.675-4.698 0-.262.038-.506.076-.758l.004-.027A4.679 4.679 0 0 1 2 14.005c0-2.072 1.341-3.813 3.203-4.446a4.959 4.959 0 0 1-.08-.785c0-2.595 2.093-4.698 4.675-4.698 1.101 0 2.093.403 2.893 1.036A3.645 3.645 0 0 1 15.995 3c1.472 0 2.723.865 3.324 2.123a4.582 4.582 0 0 1 2.893-1.037c2.582 0 4.675 2.103 4.675 4.698 0 .262-.038.506-.076.758l-.004.027ZM7 26.5a2.5 2.5 0 1 1-5 0 2.5 2.5 0 0 1 5 0Z"/></svg>
